dist/flags/s/818.svg

<svg width="16" height="12" viewBox="0 0 16 12" fill="none" xmlns="http://www.w3.org/2000/svg">
<mask id="mask0" mask-type="alpha" maskUnits="userSpaceOnUse" x="0" y="0" width="16" height="12">
<rect width="16" height="12" fill="white"/>
</mask>
<g mask="url(#mask0)">
<path fill-rule="evenodd" clip-rule="evenodd" d="M0 0V12H16V0H0Z" fill="#F7FCFF"/>
<mask id="mask1" mask-type="alpha" maskUnits="userSpaceOnUse" x="0" y="0" width="16" height="12">
<path fill-rule="evenodd" clip-rule="evenodd" d="M0 0V12H16V0H0Z" fill="white"/>
</mask>
<g mask="url(#mask1)">
<path fill-rule="evenodd" clip-rule="evenodd" d="M0 0V4H16V0H0Z" fill="#BF2714"/>
<path fill-rule="evenodd" clip-rule="evenodd" d="M0 8V12H16V8H0Z" fill="#272727"/>
<path d="M6.13017 5.11011L6.62964 5.133L6.50427 7.86791L6.00479 7.84501L6.13017 5.11011Z" fill="#C09302"/>
<path d="M6.65205 5.27991L7.15125 5.30813L7.02588 7.52579L6.52667 7.49757L6.65205 5.27991Z" fill="#C09302"/>
<path d="M7.17422 5.44592L7.67254 5.48681L7.54717 7.01482L7.04884 6.97393L7.17422 5.44592Z" fill="#C09302"/>
<path d="M9.86983 5.11011L9.37036 5.133L9.49573 7.86791L9.99521 7.84501L9.86983 5.11011Z" fill="#C09302"/>
<path d="M9.34795 5.27991L8.84875 5.30813L8.97412 7.52579L9.47333 7.49757L9.34795 5.27991Z" fill="#C09302"/>
<path d="M8.82578 5.44592L8.32746 5.48681L8.45283 7.01482L8.95116 6.97393L8.82578 5.44592Z" fill="#C09302"/>
<path d="M7.98667 7.66326L7.4993 7.5516L7.70559 6.65125L8.19296 6.76291L7.98667 7.66326Z" fill="#C09302"/>
<path d="M8.35975 7.66326L8.84712 7.5516L8.64083 6.65125L8.15346 6.76291L8.35975 7.66326Z" fill="#C09302"/>
<path d="M8.23608 7.65496H7.73608V6.771H8.23608V7.65496Z" fill="#C09302"/>
<path d="M7.31738 5.45654L7.81723 5.4688L7.78803 6.65926L7.28818 6.64699L7.31738 5.45654Z" fill="#C09302"/>
<path d="M8.18695 5.45654L8.6868 5.4688L8.65759 6.65926L8.15775 6.64699L8.18695 5.45654Z" fill="#C09302"/>
<path d="M6.66899 7.96136L6.79884 7.47852C7.32937 7.62119 7.73672 7.69175 8.0145 7.69175C8.29227 7.69175 8.69963 7.62119 9.23015 7.47852L9.36 7.96136C8.79081 8.11443 8.34445 8.19175 8.0145 8.19175C7.68455 8.19175 7.23818 8.11443 6.66899 7.96136Z" fill="#C09302"/>
<path d="M6.14115 5.11133C6.10782 4.78103 6.30114 4.55744 6.62877 4.58595C6.7365 4.59533 6.85749 4.6272 7.01865 4.68188C7.06574 4.69803 7.06574 4.69803 7.1115 4.71423C7.33304 4.79303 7.3932 4.81328 7.40569 4.81595C7.3566 4.80483 7.50118 4.54345 7.53435 4.49939C7.53827 4.52737 7.52163 4.52339 7.48166 4.51539L7.03064 4.42512L7.3517 4.09575C7.46392 3.98062 7.61337 3.92352 7.78391 3.92352C7.80159 3.92352 7.81809 3.9227 7.87227 3.91937C7.91233 3.91693 7.91233 3.91693 7.95738 3.91507C8.26936 3.90496 8.4931 3.99318 8.4931 4.31401C8.4931 4.42879 8.5076 4.61336 8.53152 4.75339C8.53957 4.80049 8.55512 4.84458 8.50926 4.86394C8.51116 4.84723 8.62043 4.80411 8.79035 4.73305L8.81075 4.72452C9.30447 4.51845 9.36215 4.49933 9.5213 4.59605C9.62736 4.66051 9.72834 4.77645 9.8415 4.9493L9.42316 5.22315C9.35017 5.11166 9.29205 5.04401 9.26438 5.02511C9.32728 5.06881 9.11543 5.13916 9.00335 5.18594L8.98327 5.19433C8.59887 5.35509 8.5482 5.37427 8.43829 5.37427C8.13919 5.37427 8.03179 5.06789 8.00239 4.62911C7.91011 4.9329 7.63478 5.31627 7.40789 5.31627C7.30857 5.31627 7.35632 5.33199 6.94394 5.18532C6.90074 5.17003 6.90074 5.17003 6.85801 5.15537C6.73308 5.11298 6.64295 5.08921 6.58609 5.08413C6.58844 5.08145 6.59681 5.07244 6.60621 5.0644L6.14115 5.11133Z" fill="#C09302"/>
</g>
</g>
</svg>

<svg width="16" height="12" fill="none" xmlns="http://www.w3.org/2000/svg">
  <mask id="a" maskUnits="userSpaceOnUse" x="0" y="0" width="16" height="12">
    <path fill="#fff" d="M0 0h16v12H0z"/>
  </mask>
  <g mask="url(#a)">
    <path fill-rule="evenodd" clip-rule="evenodd" d="M0 0v12h16V0H0z" fill="#F7FCFF"/>
    <mask id="b" maskUnits="userSpaceOnUse" x="0" y="0" width="16" height="12">
      <path fill-rule="evenodd" clip-rule="evenodd" d="M0 0v12h16V0H0z" fill="#fff"/>
    </mask>
    <g mask="url(#b)">
      <path fill-rule="evenodd" clip-rule="evenodd" d="M0 0v4h16V0H0z" fill="#BF2714"/>
      <path fill-rule="evenodd" clip-rule="evenodd" d="M0 8v4h16V8H0z" fill="#272727"/>
      <path d="M6.13 5.11l.5.023-.126 2.735-.5-.023.126-2.735zm.522.17l.5.028-.126 2.218-.5-.028.126-2.218z" fill="#C09302"/>
      <path d="M7.174 5.446l.499.04-.126 1.529-.498-.041.125-1.528zM9.87 5.11l-.5.023.126 2.735.5-.023L9.87 5.11zm-.522.17l-.5.028.126 2.218.5-.028-.126-2.218z" fill="#C09302"/>
      <path d="M8.826 5.446l-.499.04.126 1.529.498-.041-.125-1.528zm-.839 2.217l-.488-.111.207-.9.487.111-.206.9z" fill="#C09302"/>
      <path d="M8.36 7.663l.487-.111-.206-.9-.488.111.207.9z" fill="#C09302"/>
      <path d="M8.236 7.655h-.5v-.884h.5v.884zm-.919-2.198l.5.012-.029 1.19-.5-.012.03-1.19zm.87 0l.5.012-.03 1.19-.5-.012.03-1.19z" fill="#C09302"/>
      <path d="M6.669 7.961l.13-.482c.53.142.938.213 1.215.213.278 0 .686-.07 1.216-.213l.13.482c-.57.153-1.016.23-1.346.23-.33 0-.776-.077-1.345-.23zm-.528-2.85c-.033-.33.16-.554.488-.525.107.01.228.041.39.096l.092.032c.222.08.282.1.295.102-.05-.011.095-.273.128-.317.004.028-.012.024-.052.016l-.451-.09.32-.33a.585.585 0 01.433-.171c.018 0 .034-.001.088-.005l.085-.004c.312-.01.536.078.536.399 0 .115.015.3.038.44.009.047.024.09-.022.11.002-.017.111-.06.281-.13l.02-.01c.494-.206.552-.225.711-.128.106.065.207.18.32.353l-.418.274a.872.872 0 00-.159-.198c.063.044-.149.114-.26.161l-.02.008c-.385.161-.436.18-.546.18-.299 0-.406-.306-.436-.745-.092.304-.367.687-.594.687-.1 0-.052.016-.464-.13l-.086-.03a1.345 1.345 0 00-.272-.072.227.227 0 01.02-.02l-.465.047z" fill="#C09302"/>
    </g>
  </g>
</svg>
